src/topics/icons/modulus.svg

<?xml version="1.0" encoding="UTF-8" standalone="no"?>
<svg width="256px" height="257px" viewBox="0 0 256 257" version="1.1" xmlns="http://www.w3.org/2000/svg" xmlns:xlink="http://www.w3.org/1999/xlink" preserveAspectRatio="xMidYMid">
	<g>
		<path d="M125.287088,82.052324 L0.0796534387,0.580455547 L0.0796534387,256.141498 L46.3917601,256.141498 L46.3917601,187.535063 L125.287088,137.793326 L205.902412,87.1984974 L205.902412,256.141498 L255.640696,256.141498 L255.640696,0.580455547 L125.287088,82.052324" fill="#C7C8C9"></path>
		<path d="M0.0796534387,161.203234 L46.3917601,131.790608 L0.0796534387,108.636281 L0.0796534387,161.203234" fill="#E55425"></path>
		<path d="M125.287088,82.052324 L46.3917601,131.790608 L46.3917601,187.535063 L125.287088,137.793326 L125.287088,82.052324" fill="#40403E"></path>
	</g>
</svg>

<svg height="257" preserveAspectRatio="xMidYMid" viewBox="0 0 256 257" width="256" xmlns="http://www.w3.org/2000/svg"><path d="m125.287088 82.052324-125.20743456-81.47186845v255.56104245h46.31210666v-68.606435l78.8953279-49.741737 80.615324-50.5948286v168.9430006h49.738284v-255.56104245z" fill="#c7c8c9"/><path d="m.07965344 161.203234 46.31210666-29.412626-46.31210666-23.154327z" fill="#e55425"/><path d="m125.287088 82.052324-78.8953279 49.738284v55.744455l78.8953279-49.741737z" fill="#40403e"/></svg>
